X:239
T:Raphoe Reel, The
R:reel
D:Dervish: The Boys of Sligo
Z:id:hn-reel-239
M:C|
K:Ddor
d2AG ~F3D|E2CE DEFG|Addc defd|efaf ec~c2|
e^f~f2 g2ed|(3Bcd ed cAGE|D2 (3E^FG Adde|1 cAGE ED^FA:|2 cAGE EDD^F||
|:ECEG ^FDFA|~d3e ^fdAd|~g3a ge^ce|aged ^cAGE|
Dd~d2 de^fd|A=cBd cAGc|AGEB cdcA|1 GECE D3^F:|2 GECE DE^FA||
